X:1
T:Motet pour la trinité
T:Marc-Antoine Charpentier (c.1645-1704)
T:Edited by L. Jones May 2010
T:Motet pour la trinité
T:H.319 1677
C:Marc-Antoine Charpentier
C:(c.1645-1704)
Z:Edited by L. Jones
Z:May 2010
%%score [ 1 2 3 ] 4
L:1/8
M:4/4
K:C
V:1 alto1 nm="[Dessus]" snm="D."
V:2 alto transpose=-12 nm="[Haute-contre]" snm="H-c."
V:3 bass nm="[Basse]" snm="B."
V:4 bass nm="[Basse continue]" snm="B.c."
V:1
 x8 |[M:2/2][K:treble] E8 | A6 B2 | c8 | B3 B B3 c | A4 A4 | G2 G2 G3 A | F4 F3 G | E3 E E4 | %9
w: |O|al- ti-|tu-|do di- vi- ti-|a- rum|sa- pi- en- ti-|ae et sci-|en- ti- ae|
 z4 e4- | e4 d4 | e8 | z8 | e8 | d6 e2 | c8 | B3 e ^c3 c | d4 d4 | c2 c2 c3 d | B4 B3 c | A3 A A4 | %21
w: De-||i,||O|al- ti-|tu-|do di- vi- ti-|a- rum|sa- pi- en- ti-|ae et sci-|en- ti- ae|
 z4 A4- | A4 ^G4 | A8 | z8 | A8 | e6 e2 | f8 | e3 e e3 f | d4 d4 | c2 c2 c3 d | B4 B3 c | A3 A A4 | %33
w: De-||i,||O|al- ti-|tu-|do di- vi- ti-|a- rum|sa- pi- en- ti-|ae et sci-|en- ti- ae|
 B4 ^c4 | d8 | A8 | B6 B2 | c8 | B3 B B3 c | A4 A4 | G2 G2 G3 A | F4 F3 G | E3 E F4 | z4 c4- | %44
w: De- *|i,|O|al- ti-|tu-|do di- vi- ti-|a- rum|sa- pi- en- ti-|ae et sci-|en- ti- ae|De-|
 c4 B4 | c8 | B2 B2 B3 c | A8 | ^G6 G2 | A3 B c4 | B8 | A8 ||[M:2/2] e8 | z2 e2 c2 d2 | %54
w: |i,|sa- pi- en- ti-|ae|et sci-|en- ti- ae|De-|i|Quam|in- com- pre-|
 e2 e2 e3 d | c2 A4 f2 | d3 d e4 | d8 | e8 | d8 | z2 d2 d2 e2 | f3 f f4 | z2 c2 c2 d2 | e3 e e4 | %64
w: hen- si- bi- li-|a aunt Iu-|di- ci- a|e-|ius|quam|In- ve- sti-|ga- bi- les,|in- ve- sti-|ga- bi- les|
 f6 e2 | e4 d4 |[M:3/2] e12 | e4 B4 e4 | ^c4 A4 d4 | B6 A2 G4 | c8 G4 | A6 B2 c4 | c8 B4 | c12 | %74
w: vi- ae|e- *|ius|to- tus est|Pa- ter in|Fi- li- o|et in|Spi- ri- tu|Sanc- *|to|
 z12 | z12 | z12 | z12 | z12 | z12 | z12 | z12 | z8 ^F4 | ^G4 G4 G4 | A4 A4 A4 | B4 B4 B4 | c8 c4 | %87
w: ||||||||nec|ul- lus e-|o- rum, nec|ul- lus e-|o- rum|
 z4 c4 c4 | d6 d2 d4 | e4 e6 e2 | c8 c4 | d4 d4 d4 | B4 B4 B4 | ^c4 c4 c4 | d4 d4 A4 | B4 B4 B4 | %96
w: ex- tra|quem- li- bet|ip- so- rum|est, nec|ul- lus e-|o- rum. nec|ul- lus e-|o- rum, nec|ul- lus e-|
 c8 c4 | z4 A4 A4 | d6 d2 d4 | B4 B6 A2 | ^G12 | z4 A8 | ^c4 c4 ^d4 | e8 e4 | g4 ^d6 e2 | e12 | %106
w: o- rum|ex- tra|quem- li- bet|ip- so- rum|est|O|ve- ra et|un- a|tri- * ni-|tas|
 c4 d4 e4 | e4 d4 c4 | c4 B6 c2 | c12 | A4 B4 ^c4 | d6 e2 d2 =c2 | B12 | e8 e4 | ^c4 d4 d4 | %115
w: un- a et|sum- * ma|De- * i-|tas|tri- na et|sanc- ta un- i-|tas|O, O|ver- a et|
 B4 =c4 c4 | A8 A4 | A4 ^G6 A2 |[M:16/4] A2 x30 |] %119
w: un- a, et|un- a|tri- * ni-|tas.|
V:2
 x8 |[M:2/2][K:treble-8] z8 | z8 | A8 | e6 e2 | f8 | e3 e e3 f | d4 d4 | c2 c2 c3 d | B4 B3 c | %10
w: |||O|al- ti-|tu-|do di- vi- ti-|a- rum|sa- pi- en- ti-|ae et sci-|
 A3 A A4 | z4 a4- | a4 ^g4 | a8 | z8 | e8 | e6 e2 | f8 | e3 a ^f3 f | g4 g4 | f2 f2 f3 g | %21
w: en- ti- ae|De-||i,||O|al- ti-|tu-|do di- vi- ti-|a- rum|sa- pi- en- ti-|
 e4 e3 f | d3 d d4 | c3 c c3 d | B4 e4- | e4 d4- | d4 ^c4 | d2 d2 d3 e | c4 c3 d | B3 B B4 | %30
w: ae et sci-|en- ti- ae,|et sci- en- ti-|ae De-||* i,|sa- pi- en- ti-|ae et sci-|en- ti- ae|
 z4 A4- | A4 ^G4 | A4 z4 | g2 g2 g3 a | f4 f3 g | e3 e e4 | z4 g4- | g4 ^f4 | g8 | c3 c c3 d | %40
w: De-||i,|sa- pi- en- ti-|ae et sci-|en- ti- ae|De-||i,|sa- pi- en- ti-|
 B4 B3 c | A3 A B4 | c4 A2 A2 | e6 e2 | f8 | e3 e e3 f | d4 d4 | d2 d2 d3 e | c4 B2 B2 | c3 B A4 | %50
w: ae et sci-|en- ti- ae|De- i, O|al- ti-|tu-|do di- vi- ti-|a- rum|sa- pi- en- ti-|ae et sci-|en- ti- ae|
 A4 ^G4 | A8 ||[M:2/2] g8 | z2 g2 e2 f2 | g2 g2 g3 f | e2 c4 d2 | B3 B c4 | c4 B4 | c8 | B8 | %60
w: De- *|i|Quam|in- com- pre-|hen- si- bi- li-|a sunt Iu-|di- ci- a|e- *|ius|quam|
 z2 B2 B2 ^c2 | d3 d d4 | z2 A2 A2 B2 | c3 c c4 | B4 ^G4 | A8 |[M:3/2] ^G12 | z12 | z12 | z12 | %70
w: In- ve- sti-|ga- bi- les,|in- ve- sti-|ga- bi- les|vi- ae|e-|ius||||
 z12 | z12 | g4 d4 g4 | e4 c4 e4 | d6 c2 B4 | ^c8 ^f4 | ^d6 d2 e4 | e4 ^d8 | e12 | z12 | z12 | %81
w: ||to- tus est|Pa- ter in|Fi- li- o|et in|Spi- ri- tu|Sanc- *|to|||
 z12 | z12 | z8 B4 | ^c4 c4 c4 | d4 d4 d4 | d4 d4 e4 | e8 ^f4 | z4 g4 g4 | g6 g2 g4 | a4 a6 a2 | %91
w: ||nec|ul- lus e-|o- rum, nec|ul- lus e-|o- rum|ex- tra|quem- li- bet|ip- so- rum|
 f8 ^f4 | ^g4 g4 g4 | a4 a4 e4 | ^f4 f4 f4 | g8 g4 | z4 e4 e4 | c6 c2 c4 | f2 e2 d2 c2 B2 A2 | %99
w: est, nec|ul- lus e-|o- rum, nec|ul- lus e-|o- rum|ex- tra|quem- li- bet|ip- * so- * rum _|
 ^G12 | z4 B8 | z4 ^c8 | e4 e4 ^f4 | g8 g4 | g4 ^f6 e2 | e12 | e4 f4 g4 | g4 f4 e4 | e4 d6 c2 | %109
w: est,|O,|O|ve- ra et|un- a|tri- * ni-|tas|un- a et|sum- * ma|De- * i-|
 c12 | c4 d4 e4 | f6 g2 f2 e2 | d12 | g8 g4 | g4 f4 f4 | f4 e4 e4 | e4 d4 c4 | c4 B6 A2 | %118
w: tas|tri- na et|sanc- ta un- i-|tas|O, O|ver- a et|un- a, et|un- * a|tri- * ni-|
[M:16/4] A2 x30 |] %119
w: tas.|
V:3
 x8 |[M:2/2] z8 | z8 | z8 | z8 | z8 | z8 | z8 | A,,8 | E,6 E,2 | F,8 | E,3 E, E,3 F, | D,4 D,4 | %13
w: ||||||||O|al- ti-|tu-|do di- vi- ti-|a- rum|
 C,2 C,2 C,3 D, | B,,4 B,,3 C, | A,,3 A,, A,,4 | z4 A,4- | A,4 ^G,4 | A,8 | E,8 | A,6 B,2 | C8 | %22
w: sa- pi- en- ti-|ae et sci-|en- ti- ae|De-||i,|O|al- ti-|tu-|
 B,3 B, B,3 C | A,4 A,4 | G,2 G,2 G,3 A, | F,4 F,3 G, | E,3 E, E,4 | D,8 | A,8 | z8 | A,,8 | %31
w: do di- vi- ti-|a- rum|sa- pi- en- ti-|ae et sci-|en- ti- ae|De-|i,||O|
 E,6 E,2 | F,8 | E,3 E, E,3 F, | D,4 D,4 | C,2 C,2 C,3 D, | B,,4 B,,3 C, | A,,3 A,, A,,4 | %38
w: al- ti-|tu-|do di- vi- ti-|a- rum|sa- pi- en- ti-|ae et sci-|en- ti- ae|
 z4 E,4- | E,4 ^D,4 | E,8 | F,2 E,2 D,3 D, | C,4 F,3 F, | E,3 E, E,4 | D,8 | C,8 | G,2 G,2 G,3 A, | %47
w: De-||i,|sa- pi- en- ti-|ae et sci-|en- ti- ae|De-|i,|sa- pi- en- ti-|
 F,4 F,3 G, | E,3 E, E,4 | A,3 G, F,2 E,D, | E,8 | A,,8 ||[M:2/2] C8 | z2 C2 C2 C2 | C2 C2 C,3 C, | %55
w: ae et sci-|en- ti- ae|De- * * * *||i|Quam|in- com- pre-|hen- si- bi- li-|
 C,2 F,4 D,2 | G,3 F, E,4 | G,8 | C,8 | G,8 | z8 | z2 D,2 D,2 E,2 | F,3 F, F,4 | z2 C,2 C,2 C,2 | %64
w: a sunt Iu-|di- ci- a|e-|ius|quam||In- ve- sti-|ga- bi- les,|in- ve- sti-|
 D,2 D,D, E,2 E,2 | F,8 |[M:3/2] E,12 | z12 | z12 | z12 | z12 | z12 | z12 | z12 | z12 | z12 | z12 | %77
w: ga- bi- les vi- ae|e-|ius|||||||||||
 B,4 ^F,4 B,4 | ^G,4 E,4 A,4 | ^F,6 E,2 D,4 | E,4 A,,4 B,,4 | C,6 B,,2 A,,4 | B,,12 | E,12 | %84
w: to- tus est|Pa- ter in|Fi- li- o|et quo- que|Spi- ri- tus|Sanc-|tus|
 z8 E,4 | ^F,4 F,4 F,4 | G,4 G,4 ^G,4 | A,4 A,4 A,4 | B,8 B,4 | z4 C4 C4 | F,6 F,2 F,4 | %91
w: nec|ul- lus e-|o- rum, nec|ul- lus e-|o- rum|ex- tra|quem- li- bet|
 D,4 D,6 D,2 | E,8 E,4 | A,4 A,4 A,4 | D,4 D,4 D,4 | G,8 G,4 | z4 C,4 C,4 | F,6 F,2 F,4 | %98
w: ip- so- rum|est, nec|ul- lus, nec|ul- lus e-|o- rum|ex- tra|quem- li- bet|
 D,4 D,6 D,2 | E,12 | z4 E,8 | z4 A,8 | G,4 G,4 ^F,4 | E,8 E,4 | B,4 A,6 B,2 | E,12 | z12 | z12 | %108
w: ip- so- rum|est,|O,|O|ve- ra et|un- a|tri- * ni-|tas|||
 z12 | C,4 D,4 E,4 | F,8 E,4 | D,4 E,4 F,4 | G,6 A,2 G,2 F,2 | E,12 | z4 D,8 | G,4 C,4 C,4 | %116
w: |tri- na et|sanc- ta,|tri- na et|san- cta u- ni-|tas|O|ver- a, et|
 F,8 F,2 D,2 | E,4 D,6 E,2 |[M:16/4] A,,2 x30 |] %119
w: un- a _|tri- * ni-|tas.|
V:4
 x8 |[M:2/2] A,6 G,2 | F,2 E,2 D,4 | A,8 |"^6" G,8 |"^7""^6" F,8 | C,4 ^C,4 |"^5""^6" D,8 | A,,8 | %9
"^#" E,8 |"^7""^6" F,8 |"^#""^64" E,8 |"^7""^6K" D,8 |"^6" C,8 |"^7""^6" B,,8 | A,,8 | %16
 ^G,,4"^[#]" A,,2 A,2 |"^42" A,4 ^G,4 |"^5""^´" A,8 |"^!" E,8 |"^6" A,6 B,2 |"^6" C8 | %22
"^7""^´" B,8 |"^5""^6" A,8 |"^7""^6" G,8 |"^7""^6" F,8 |"^7""^6" E,8 |"^5""^6" D,8 | A,4 ^F,4 | %29
 G,4 ^G,,4 | A,,8 |"^[4]""^[#]" E,8 |"^7""^6" F,8 |"^5""^´" E,8 | D,8 |"^6" C,8 |"^6" B,,8 | %37
"^7""^´" A,,8 | E,8 |"^[4][2]" E,4"^[7]" ^D,4 |"^!" E,8 | F,2 E,2"^6" D,4 | C,4 F,4 |"^6" E,8 | %44
"^7""^6" D,8 | C,8 | G,8 |"^6" F,8 |"^6#""^5#" E,8 | A,3 G, F,2 E,D, |"^4""^#" E,8 | A,,8 || %52
[M:2/2] C8 | z2 C2 C2 C2 | C4 C,4 | C,2 F,4 D,2 | G,3 F, E,4 | G,4 G,,4 | C,8 | G,,8 | G,8 | %61
 D,6 E,2 | F,8 | C,6 C,2 |"^6" D,4"^#" E,4 |"^7""^6" F,8 |[M:3/2]"^#" E,12 | ^G,12 | %68
"^#" A,4 F,4 D,4 | G,6 F,2 E,4 | C,6 D,2 E,4 | F,8 E,4 | G,12 | C,12 |"^6" D,8"^#" E,4 | %75
"^5#""^´" A,,12 |"^#" B,,8"^6" C,4 |"^4""^#" B,,12 |"^[#]" E,4 C,4 A,,4 |"^[#]" D,6 C,2 B,,4 | %80
 C,8 B,,4 | A,,6 B,,2 C,2 A,,2 | B,,12 |"^#" E,12 |"^#" A,,12 | D,12 | G,,4 G,2 F,2"^#" E,4 | %87
"^5""^´" A,12 |"^6" B,12 | C12 | F,12 |"^!""^#" D,12 | E,12 |"^#" A,12 |"^#" D,12 | G,12 | C,12 | %97
 F,12 | D,12 | E,12 | E,12 | z4"^#" A,8 |"^K2" G,8"^´" ^F,4 | E,12 | B,4 B,,8 |"^#" E,12 | C,12 | %107
"^97""^86""^75" F,12 | G,4 G,,8 | C,4 D,4 E,4 | F,6 G,2 F,2 E,2 | D,4 E,4 F,4 | G,6 A,2 G,2 F,2 | %113
 E,4 ^F,4 G,4 |"^#" A,4 D,8 |"^7" G,4 C,4 C,4 | F,8 F,2 D,2 | E,4 E,,8 |[M:16/4] A,,2 x30 |] %119

